images/united.svg

<svg width="42" height="51" viewBox="0 0 42 51" fill="none" xmlns="http://www.w3.org/2000/svg">
<path fill-rule="evenodd" clip-rule="evenodd" d="M6.01896 6.96845L6.01895 6.96844C5.97905 6.94632 5.9387 6.92394 5.89446 6.89445H5.9028C5.90553 6.8899 5.90886 6.88504 5.9124 6.87989L5.91241 6.87987C5.91965 6.86932 5.92776 6.85751 5.93335 6.84445C5.94446 6.84029 5.95627 6.83682 5.96807 6.83334L5.96809 6.83334C5.97989 6.82987 5.99169 6.8264 6.0028 6.82223C6.06809 6.86887 6.09079 6.91802 6.11464 6.96967C6.1263 6.99492 6.13824 7.02078 6.15557 7.04723C8.61946 8.59445 9.99724 7.7639 10.9611 5.60557C11.0945 5.29446 11.2222 4.95834 11.3472 4.60001C12.4857 1.25624 15.1641 1.21554 17.7545 1.17617C18.5835 1.16357 19.4035 1.15111 20.1611 1.03057C21.9889 0.744455 21.4056 2.44723 20.6139 3.26668C20.3526 3.54064 20.0455 3.7713 19.7274 4.01018C18.9264 4.61175 18.056 5.26549 17.6722 6.79445C18.411 6.79445 19.1182 6.79908 19.8037 6.80356C21.3092 6.8134 22.7102 6.82256 24.1111 6.78057C26.7306 6.70279 27.175 7.65557 25.7306 9.77501C25.4142 10.2422 25.1583 10.7528 24.9029 11.2623L24.9029 11.2623C24.5843 11.898 24.2666 12.532 23.8334 13.0778C22.3195 14.9722 22.3528 16.2667 24.8361 17.15C25.4611 17.3722 26.2667 17.9278 26.425 18.4917C27.1788 21.1628 28.9835 23.1701 30.7829 25.1715C32.7766 27.3889 34.7638 29.5991 35.3084 32.6972C35.3337 32.8398 35.351 32.9718 35.3668 33.0927C35.4535 33.754 35.4967 34.0833 36.5722 33.9917C38.4056 33.8195 40.575 33.7972 41.0861 36.1361C41.5778 38.3667 39.9861 39.7861 38.2834 40.9639C38.0514 41.1224 37.8746 41.3548 37.6772 41.6144L37.6771 41.6145L37.6771 41.6146C37.5908 41.728 37.5005 41.8467 37.4 41.9667C37.5571 42.652 38.151 42.6702 38.707 42.6872C39.262 42.7042 39.7792 42.72 39.7861 43.3972C39.7972 44.525 38.5889 45.05 37.7528 45.3083C33.4889 46.6333 28.9972 47.0833 24.625 46.9945C22.2911 46.9429 20.2482 47.6889 18.2164 48.4308C16.7417 48.9692 15.2728 49.5055 13.7028 49.7333C13.4729 49.7677 13.2471 49.819 13.017 49.8714C12.1849 50.0609 11.2951 50.2634 9.94168 49.7195C11.5466 49.1366 12.6068 47.9549 13.6749 46.7646C15.2687 44.9882 16.8799 43.1925 20.3445 43.3389C19.738 43.0869 19.2508 42.8814 18.8417 42.7087L18.8387 42.7075L18.8385 42.7074L18.8385 42.7074L18.8384 42.7074C18.0408 42.3708 17.5398 42.1594 17.0278 41.9722C14.6972 41.1306 14.3861 39.4945 16.125 37.6C17.1056 36.5361 17.7834 35.3945 15.5611 34.9333C14.3395 34.6816 14.631 34.1589 14.9543 33.5794C15.1874 33.1613 15.4371 32.7136 15.1472 32.3167C14.775 31.8056 15.9972 31.6611 16.7028 31.75C18.7917 32.0195 21.7445 32.3806 20.9334 29.3278C20.8675 29.0811 20.805 28.8031 20.7385 28.5068L20.7384 28.5065L20.7384 28.5064C20.2774 26.454 19.6182 23.5197 16.2445 23.9639C12.5889 24.4445 11.4417 23.5389 13.7278 20.2222C13.2628 20.0142 12.6194 20.2545 12.0027 20.4849C10.8327 20.922 9.75856 21.3233 10.1806 18.5583C10.2056 18.3833 9.86113 17.9639 9.79169 17.9833C9.52593 18.0675 9.25436 18.3309 8.9844 18.5927L8.98439 18.5927C8.39939 19.1601 7.82197 19.7201 7.3278 18.4333C6.97519 17.516 7.57192 17.2735 8.27236 16.9888C8.98451 16.6993 9.80387 16.3662 9.84169 15.2361C9.78655 15.0572 9.37532 15.0532 8.93264 15.0489C8.19329 15.0417 7.36622 15.0336 7.96391 14.2083C9.95347 11.4633 8.43131 10.3096 6.72826 9.0189L6.72821 9.01886L6.72805 9.01873C6.55274 8.88587 6.37552 8.75155 6.20002 8.6139C5.96982 8.43464 6.05364 8.16439 6.14328 7.87539C6.1856 7.73894 6.22921 7.59832 6.24169 7.46112C6.24169 7.45696 6.2403 7.4514 6.23891 7.44585L6.23891 7.44584C6.23752 7.44029 6.23613 7.43473 6.23613 7.43057C6.24446 7.30001 6.23057 7.16668 6.15002 7.04723C6.10403 7.01561 6.06175 6.99217 6.01897 6.96845L6.01896 6.96845ZM1.4778 27.1861C0.916685 27.0945 0.277796 26.5056 0.338907 25.6583C0.46113 24.1028 5.2028 20.9333 7.30835 21.0583C9.24749 21.1651 9.87283 22.4829 10.4606 23.7216C10.6988 24.2236 10.9309 24.7127 11.2417 25.1028C11.15 26.9361 10.0417 27.9722 8.85002 27.9778C6.51002 28.0069 4.15236 27.6223 1.82271 27.2423L1.4778 27.1861ZM8.19169 1.87779C5.56669 2.57779 4.0528 3.97223 4.23891 6.79168C2.48053 6.96463 2.99059 7.67977 3.46069 8.33888C3.5342 8.44194 3.60673 8.54364 3.66946 8.64168C3.80518 8.33292 4.04139 8.04282 4.28509 7.74352L4.28509 7.74352C4.44043 7.55274 4.5988 7.35824 4.73613 7.15279C4.89028 7.1129 5.04485 7.07218 5.19951 7.03144L5.1997 7.03138C5.44352 6.96715 5.68757 6.90285 5.93057 6.84168C6.16736 6.31966 6.57444 5.87828 6.98734 5.43059C7.82901 4.51801 8.69485 3.57922 8.19169 1.87779ZM3.57502 9.42501C3.99724 9.27779 3.88335 8.98334 3.66669 8.64168C3.55835 8.88057 3.49446 9.13057 3.57502 9.42501Z" fill="#0E8784"/>
</svg>

<svg width="42" height="51" fill="none" xmlns="http://www.w3.org/2000/svg"><path fill-rule="evenodd" clip-rule="evenodd" d="M6.019 6.968a1.696 1.696 0 0 1-.125-.074h.009a.293.293 0 0 1 .01-.014c.007-.01.015-.022.02-.036l.035-.01.035-.012a.321.321 0 0 1 .112.148c.011.025.023.05.04.077 2.464 1.547 3.842.717 4.806-1.441.133-.312.261-.648.386-1.006 1.139-3.344 3.817-3.384 6.408-3.424.829-.012 1.649-.025 2.406-.145 1.828-.287 1.245 1.416.453 2.236-.261.274-.569.504-.887.743-.8.602-1.671 1.255-2.055 2.784.739 0 1.446.005 2.132.01 1.505.01 2.906.019 4.307-.023 2.62-.078 3.064.875 1.62 2.994-.317.467-.573.978-.828 1.487-.319.636-.636 1.27-1.07 1.816-1.513 1.894-1.48 3.189 1.003 4.072.625.222 1.43.778 1.589 1.342.754 2.67 2.558 4.678 4.358 6.68 1.994 2.217 3.98 4.427 4.525 7.525.026.143.043.275.059.396.087.661.13.99 1.205.899 1.834-.172 4.003-.195 4.514 2.144.492 2.23-1.1 3.65-2.803 4.828-.232.158-.408.39-.606.65-.086.114-.176.233-.277.353.157.685.751.703 1.307.72.555.017 1.072.033 1.08.71.01 1.128-1.198 1.653-2.034 1.911-4.264 1.325-8.756 1.775-13.128 1.687-2.334-.052-4.377.694-6.409 1.436-1.474.538-2.943 1.075-4.513 1.302-.23.035-.456.086-.686.138-.832.19-1.722.392-3.075-.152 1.605-.582 2.665-1.764 3.733-2.954 1.594-1.777 3.205-3.572 6.67-3.426-.607-.252-1.094-.458-1.503-.63l-.003-.002a40.478 40.478 0 0 0-1.811-.735c-2.33-.841-2.642-2.477-.903-4.372.98-1.064 1.658-2.206-.564-2.667-1.222-.251-.93-.774-.607-1.354.233-.418.483-.865.193-1.262-.372-.511.85-.656 1.556-.567 2.089.27 5.041.63 4.23-2.422a21.791 21.791 0 0 1-.195-.821c-.46-2.053-1.12-4.987-4.494-4.543-3.655.48-4.802-.425-2.516-3.742-.465-.208-1.109.032-1.725.263-1.17.437-2.244.838-1.822-1.927.025-.175-.32-.594-.39-.575-.265.084-.537.348-.807.61-.585.567-1.162 1.127-1.656-.16-.353-.917.244-1.16.944-1.444.713-.29 1.532-.623 1.57-1.753-.055-.179-.467-.183-.91-.187-.739-.007-1.566-.015-.968-.84 1.99-2.746.467-3.9-1.236-5.19a40.038 40.038 0 0 1-.528-.405c-.23-.18-.146-.45-.057-.739.043-.136.086-.277.099-.414a.072.072 0 0 0-.003-.015.072.072 0 0 1-.003-.015.594.594 0 0 0-.086-.384c-.046-.031-.088-.055-.131-.079zM1.478 27.186c-.561-.091-1.2-.68-1.14-1.528.123-1.555 4.865-4.725 6.97-4.6 1.94.107 2.565 1.425 3.153 2.664.238.502.47.99.78 1.38-.091 1.834-1.2 2.87-2.391 2.876-2.34.029-4.698-.356-7.027-.736l-.345-.056zM8.192 1.878c-2.625.7-4.14 2.094-3.953 4.914-1.758.173-1.248.888-.778 1.547.073.103.146.205.208.303.136-.31.372-.6.616-.898.155-.191.314-.386.451-.591.154-.04.309-.08.464-.122l.73-.19c.237-.521.644-.963 1.057-1.41.842-.913 1.708-1.852 1.205-3.553zM3.575 9.425c.422-.147.308-.442.092-.783-.109.239-.173.489-.092.783z" fill="#0E8784"/></svg>
